icons/production/backbone.svg

<?xml version="1.0" encoding="UTF-8" standalone="no"?>
<svg width="24px" height="24px" viewBox="0 0 24 24" version="1.1" xmlns="http://www.w3.org/2000/svg">
<!--Generator: Sketch 3.8.3 (29802) - http://www.bohemiancoding.com/sketch-->
    <title>
        backbone
    </title>
    <desc>
        Created with Sketch.
    </desc>
    <g id="Page-1" stroke="none" stroke-width="1" fill="none" fill-rule="evenodd">
        <path d="M12,6.58941683 L4,2 L4,22 L12,17.4105832 L20,22 L20,2 L12,6.58941683 L12,6.58941683 Z M8.01467659,12 L12,9.71373112 L15.9853234,12 L12,14.2862689 L8.01467659,12 L8.01467659,12 Z M6.64765699,6.39361971 L9.49827026,8.02920078 L6.64765699,9.66478184 L6.64765699,6.39361971 L6.64765699,6.39361971 Z M6.64765699,14.3352182 L9.28525003,15.8475821 L6.64765699,17.3607899 L6.64765699,14.3352182 L6.64765699,14.3352182 Z M17.352343,17.3607899 L14.71475,15.8475821 L17.352343,14.3343742 L17.352343,17.359946 L17.352343,17.3607899 Z M14.5008911,8.02920078 L17.3515044,6.39361971 L17.3515044,9.66478184 L14.5008911,8.02920078 L14.5008911,8.02920078 Z" id="backbone" fill="#000"/>
    </g>
</svg>

<svg xmlns="http://www.w3.org/2000/svg" viewBox="0 0 24 24">
    <path fill-rule="evenodd" d="M12 6.59L4 2v20l8-4.59L20 22V2l-8 4.59zM8.015 12L12 9.714 15.985 12 12 14.286 8.015 12zM6.648 6.394l2.85 1.635-2.85 1.636V6.394zm0 7.941l2.637 1.513-2.637 1.513v-3.026zm10.704 3.026l-2.637-1.513 2.637-1.514v3.026zm-2.851-9.332l2.85-1.635v3.27l-2.85-1.635z"/>
</svg>
